X:1
T:Ingonish Jig (J-71)
%C: J-71
R:jig
Z:Transcribed to abc by Mary Lou Knack
M:6/8
P: E Dorian
K:Edor
"Em"B2e efg| "D"fef "Bm"dBA| "Em"B2e efg| "D"afe "Bm"d2A|
"Em"Bee efg| "D"fef dBA| "G"BdB "D"AFD |1 "Em"EFE E2A :|2 "Em"EFE E2e |]
|:"Em"BEE BEE| "D"FEF DFA| "Em"BEE BEE| "D"ABc "Bm"dcd|
"Em"BEE BEE| "D"FEF DFA| "G"ABc "D"dAF |1 "Em"EFE E2e :|2 "Em"EFE E3 |]

